X:291
T: Huang shan yangge
N: C0683
O: China,Anhui
S: MM,]
N: Kopie der Noten.
N: Wenig Verzierungen.
R: Shange, Tiange. Nongtian laodong shi chang. Huangshan fengguang]
M: 2/4
L: 1/16
K: A
c2B2c2B2 | c2B2B2F2 | E8- | E8 |
f2A2E2F2 | A4F2z2 |
A2B2e2c2- | c8 |
f2e2c2B2 | cA3F2z2 |
B2c2eB3-B4 | c2B2A2F2 | F2A2FE3- | E6z2 |
F2F2A2B2 | c2B2B2A2 | B8 |
c2B2B2F2 | A6B2 | E6F2 |
A2B2A2F2 | F8 |
c2B2-B4- | B4BAF2- | F8 |
A2B2c2ec | B2cBA3F |
B2A2 | F2E4A2- | A2F2A2B2 |
c2e2c2B2c2ec | B3cFABc | BAFEF4 |
F2ABE2F2 | A4F2z2 |
B4ABF2 | ABF2E4- | E4z4

@@@ Tune index: 6292
